X:1
T:[ID 1-130b]
T:[ID 1-130b]
T:Bezeichnung standardisiert: Teiger Sesken; Teiger Sesken
T:Urheber unbekannt Datum in der hier transkribierten schriftlichen Quelle: vermutlich vor 1767
C:Urheber unbekannt
C:Datum in der hier transkribierten schriftlichen Quelle: vermutlich vor 1767
L:1/8
M:2/4
K:D
V:1 treble 
V:1
 d2 fe | d2 A2 | BB/c/ AG | FEFG | A3 A | B/c/d/B/ c/d/e/c/ | d3 :: d | dAB=c | B3 e | eB^cd | %11
 e3 f | gfed | e2 d/e/f | edcB | A3 A | B/c/d/B/ c/d/e/c/ | d3 :| %18

